!! 00000] TT[WS
!!!OTL: Shuigua xibaoto
!!!ARE: Asia, China, Shanxi Wutai
!! Ethnic Group: Han
!! WI, 262
!!!SCT: J0310
!!!YEM: Copyright 1995, estate of Helmut Schaffrath.
**kern
*ICvox
*Ivox
*M2/4
*k[b-e-]
*B-:
{8cc
16cc
16dd
16ff
16gg
16ff
16dd
=1
2cc
=2
16dd
16ee-
16dd
16cc
4b-
=3
8cc
16cc
16dd
16cc
16b-
16g
16b-
=4
2f}
=5
{8ff
8ff
16dd
16ff
16dd
16cc
=6
16dd
16ff
16ff
16g
4b-
=7
8cc
16cc
16dd
16cc
16b-
16g
16b-
=8
8f
16f
16b-
16d
16f
16d
16f
=9
16g
16b-
16g
16f
4g}
=10
{8.cc
16dd
8.ff
16cc
=11
8b-
8g
16g
16b-
16g
16f
=12
8d
8f
8b-
16b-
16g
=13
16f
16g
16f
16d
4c}
==
!!!AGN: Xiaodiao, Qingge
!!!ONB: ESAC (Essen Associative Code) Database: CHINA
!!!AMT: simple duple
!!!AIN: vox
!!!EED: Helmut Schaffrath
!!!EEV: 1.0
*-
